X: 1
T: Miner's, The
M: 6/8
L: 1/8
R: jig
K: Edor
|:f | gfe edB | BAB EFG | ~F3 DFA |BAc def |
[1 ~g3 edB | BAB d3 |B/c/dA FAF | GED E2 :|
[2 ~g3 fdB | bag agf | ged e/f/ge | dBG E2 ||
|:z | efe Beg | bge gfe |1 ded ~d3 |Adf afd |
efe Beg | bge gfe |fdB AGF | GED E2 :|2 ded  [F3d3] |
[E3d3] [D3d3] | efe Beg | bge gfe | fdB AGF | GED E2 ||
